!!!COM: Beethoven, Ludwig van
!!!CDT: 1770///-1827///
!!!OTL: Piano Sonata no. 1 in F minor
!!!OPS: 2
!!!ONM: 1
!!!OMV: 3
!!!AGN: Minuet and Trio
!!!OMD: MINUETTO
!!!OMD: MINUETTO: Allegretto
!!!Xfilter: extract -s 1,3,4
**kern	**kern	**dynam
*staff2	*staff1	*staff1/2
*Ipiano	*Ipiano	*Ipiano
*>[A,A,B,B,C,C,D,D,A,B]	*>[A,A,B,B,C,C,D,D,A,B]	*>[A,A,B,B,C,C,D,D,A,B]
*>norep[A,B,C,D,A,B]	*>norep[A,B,C,D,A,B]	*>norep[A,B,C,D,A,B]
*>A	*>A	*>A
*clefF4	*clefG2	*clefG2
*k[b-e-a-d-]	*k[b-e-a-d-]	*k[b-e-a-d-]
*f:	*f:	*f:
*M3/4	*M3/4	*M3/4
*MM118	*MM118	*MM118
4r	4c' 4a-'	p
=1	=1	=1
4r	(4d- 4b-	.
4r	4B-) 4g	.
4F	4r	.
=2	=2	=2
4r	(4c 4a-	.
4r	4A-) 4f	.
4F (4A-	(4c 4f	.
=3	=3	=3
4G 4B-	4c 4e	.
4F 4A-	4c 4f	.
4E 4G)	4c) 4g	.
=4	=4	=4
*	*^	*
2F 2A-	(4b-	2c	.
.	4a-)	.	.
4r	4e- 4cc	4ryy	.
*	*v	*v	*
=5	=5	=5
4r	(4f 4dd-	.
4r	4d-) 4b-	.
4AA- 4A-	4r	.
=6	=6	=6
4r	(4e- 4cc	.
4r	4c) 4a-	.
4A- (4c	(4e- 4a-	.
=7	=7	=7
4B- 4d-	4e- 4g	.
4A- 4c	4e- 4a-	.
4G 4B-)	4e-) 4b-	.
!!LO:LB:g=z
=8	=8	=8
*	*^	*
2A- 2c	(4dd-	2e-	.
.	4cc)	.	.
4c (4e-	4ee-	(4a-	f
=9	=9	=9	=9
4B- 4d-	4ee-	4g	.
4A- 4c	4ee-	4a-	.
4G 4B-)	4ee-	4b-)	.
=10	=10	=10	=10
2A-	2ee-	(4dd-	.
.	.	4cc)	.
4D- 4B-	4ryy	4ff	p
*	*v	*v	*
=11	=11	=11
2E- 2c	(2a-	.
.	(ccq8	.
4E- 4d-	4g 4b-))	.
=12	=12	=12
4A- 4c	4a-	.
4r	4r	.
4r	(8ggzL	.
.	8ffJ)	.
=13	=13	=13
2E- 2c	(2a-	.
.	(ccq8	.
4E- 4d-	4g) 4b-)	.
=14	=14	=14
4A- 4c	4a-	.
4r	4r	.
=:|!|:	=:|!|:	=:|!|:
*>B	*>B	*>B
4r	4cc (4ee-	p
=15	=15	=15
4r	4dd- 4ff-	.
4G (4B-	4b- 4dd-)	.
4B- 4d-)	4r	.
=16	=16	=16
4r	4cc (4ee-	.
4A- (4c	4a- 4cc)	.
4c 4e-)	4r	.
!!LO:LB:g=z
=17	=17	=17
4r	4ee- (4gg-	.
4A (4c	4cc 4ee-)	.
4c 4e-)	4r	.
=18	=18	=18
4r	4dd- (4ffn	.
4B- (4d-	4b- 4dd-)	.
4d- 4f)	4r	.
=19	=19	=19
2F (2d-	(<2f 2b-	p
.	(>dd-q8	.
4F 4e-	4a/) 4cc/)	.
=20	=20	=20
4B- 4d-)	4b-	.
4r	4r	.
4r	(8gg-zL	.
.	8ffJ)	.
=21	=21	=21
2F (2d-	2b-	pp
.	(<dd-q8	.
4F 4e-	4a) 4cc	.
=22	=22	=22
4B- 4d-)	4b-	.
4r	4r	.
4F (4e-	8a (8dd-L	.
.	8ccJ)	.
=23	=23	=23
4B- 4d-)	4b-	.
4r	4r	.
4F (4e-	8a (8dd-L	.
.	8ccJ)	.
=24	=24	=24
4B- 4d-)	4b-	.
4r	4r	.
(8d-L	(8dd-L	ff
8cJ	8ccJ	.
!!LO:LB:g=z
=25	=25	=25
8B-L	8b-L	.
8c	8cc	.
8d-	8dd-	.
8c	8cc	.
8B-	8b-	.
8cJ	8ccJ	.
=26	=26	=26
8B-L	8b-L	.
8A-	8a-	.
8G	8g	.
8A-	8a-	.
8G	8g	.
8FJ	8fJ	.
=27	=27	=27
8EL	8eL	.
8F	8f	.
8G	8g	.
8F	8f	.
8A-	8a-	.
8BBJ)	8BJ)	.
=28	=28	=28
4C'\	4c'	.
4c	4r	.
*clefG2	*	*
4c 4a-	4r	f
=29	=29	=29
(4d- 4b-	4r	.
4B-) 4g	4r	.
4B- 4g	4eenX	sf
=30	=30	=30
(4c 4a-	(4ff	.
4A-) 4f	4aa-)	.
*clefF4	*	*
4F 4A-	4ccct	.
.	16bb-qL	.
.	16cccqJ	.
=31	=31	=31
4E (4G	(4ddd-	sf
4G 4B-)	4bb-)	.
4G 4B-	4bb-T	.
.	16aa-qL	.
.	16bb-qJ	.
!!LO:LB:g=z
=32	=32	=32
4F (4A-	(4ccc	sf
4A- 4c)	4aa-)	.
4A- 4c 4f	4aa-T	.
.	16ggqL	.
.	16aa-qJ	.
=33	=33	=33
4G 4B- 4e	(4bb-	f
4B- 4d- 4e	4gg)	.
4B- 4d- 4e	4ggt	.
.	16ffqL	.
.	16ggqJ	.
*clefG2	*	*
=34	=34	=34
*^	*	*
(4f	2B 2d	(4aa-	.
4a-)	.	4ff)	.
4a-	4B 4d	4ff'	sf
=35	=35	=35	=35
2a-	2c	(2ff	p
.	.	(aa-q8	.
4b-	4c	4ee) 4gg)	.
=36	=36	=36	=36
4a-	4f	4ff	.
*v	*v	*	*
4r	4r	.
4r	(8ee-XL	pp
.	8dd-J)	.
*clefF4	*	*
=37	=37	=37
2C 2A-	(2f	.
.	(>a-q8	.
4C 4B-	4e) 4g)	.
=38	=38	=38
4F 4A-	4f	.
4r	4r	.
4r	4r	.
=39	=39	=39
!LO:S:b	!LO:S:a	!
(2.CC 2.C	(2.E< 2.G< 2.c<	pp
=40	=40	=40
4FF)	4F<)	.
4r	4r	.
!!LO:LB:g=z
!!LO:TX:a:rj:i:t=Fin
=:|!	=:|!	=:|!
!!!OMD: TRIO
*>C	*>C	*>C
*k[b-]	*k[b-]	*k[b-]
*M3/4	*M3/4	*M3/4
4r	4c	p
=41	=41	=41
!	!LO:S:a	!
(4F	(8aL	.
.	8g	.
4A	8a	.
.	8f	.
4c	8g	.
.	8aJ	.
=42	=42	=42
4d	8b-L	.
.	8a	.
4G	8b-	.
.	8g	.
4F	8a	.
.	8bJ	.
=43	=43	=43
4E	8ccL	.
.	8b	.
4G	8cc	.
.	8dd	.
4c	8cc	.
.	8b-J	.
=44	=44	=44
4F	8aL	.
.	8g	.
4A	8a	.
.	8b-	.
4c)	8a	.
.	8fJ)	.
=45	=45	=45
*	*^	*
(8AAL	(4a	2.a	.
8GG#	.	.	.
8AA	4cc	.	.
8FF	.	.	.
8GG	4ff)	.	.
8AAJ	.	.	.
=46	=46	=46	=46
8BB-L	(4g	2.g	.
8AA	.	.	.
8BB-	4dd	.	.
8GG	.	.	.
8AA	4ff)	.	.
8BBJ	.	.	.
=47	=47	=47	=47
8CL	4rff	2.g	.
8BB	.	.	.
8C	(4ff	.	.
8AA	.	.	.
8BB	4ee)	.	.
8C#J	.	.	.
=48	=48	=48	=48
8DL	4r	2f	.
8AA	.	.	.
8BB	(4dd	.	.
8GG	.	.	.
8C	4cc)	4e	.
8FF#J)	.	.	.
*	*v	*v	*
!!LO:LB:g=z
=49	=49	=49
2GG	8r	.
.	(8gL	.
.	8e	.
.	8c	.
4GGG	8B 8f	.
.	8dJ)	.
=50	=50	=50
4CC	4c	.
4C	4r	.
=:|!|:	=:|!|:	=:|!|:
*>D	*>D	*>D
4r	4c	p
=51	=51	=51
*^	*	*
(2.c	[2.C	(8eL	.
.	.	8d	.
.	.	8e	.
.	.	8c	.
.	.	8d	.
.	.	8eJ	.
=52	=52	=52	=52
2.Bn	2.C_	8fL	.
.	.	8e	.
.	.	8f	.
.	.	8d	.
.	.	8e	.
.	.	8fJ	.
=53	=53	=53	=53
2.B-X	2.C_	8gL	.
.	.	8f#	.
.	.	8g	.
.	.	8e	.
.	.	8f	.
.	.	8gJ)	.
=54	=54	=54	=54
4A)	4C]	(8aL	.
.	.	8f	.
4r	4ryy	8a	.
.	.	8cc	.
4r	4ryy	8ff	.
.	.	8aaJ)	.
*v	*v	*	*
*clefG2	*	*
=55	=55	=55
(8eL	2.cc (2.ccc	.
8d	.	.
8e	.	.
8c	.	.
8d	.	.
8eJ	.	.
=56	=56	=56
8fL	2.bn 2.bbn	.
8e	.	.
8f	.	.
8d	.	.
8e	.	.
8fJ	.	.
!!LO:LB:g=z
=57	=57	=57
8gL	4b-X 4bb-X)	.
8f	.	.
8g	8r	.
8e	(8gL	.
8f	8a	.
8gJ	8b-J	.
=58	=58	=58
8aL	8ccL	.
8g	8b-	.
8a	8cc	.
8f	8a	.
8g	8b-	.
8aJ)	8ccJ)	.
=59	=59	=59
*	*^	*
(8b-L	(4rbb	8ddL	<
8a	.	8cc	(
8b-	8raa	8dd	(
8g	8eeL	8b-	(
8a	8ff	8cc	(
8b-J)	8ggJ)	8ddJ	(
*	*v	*v	*
=60	=60	=60
(8ccL	8ee (8aaL	(
8b-	8dd 8gg	(
8cc	8ee 8aa	(
8a	8cc 8ff	(
8b-	8dd 8gg	(
8ccJ)	8ee 8aaJ)	[
=61	=61	=61
(8ddL	8ff (8bb-L	ff
8cc	8ee 8aa	.
8b-	8dd 8gg	.
8cc	8ee 8aa	.
8b-	8dd 8gg	.
8aJ	8cc 8ffJ	.
=62	=62	=62
8gL	8b- 8eeL	.
8a	8cc 8ff	.
8g	8b- 8ee	.
8f	8a 8dd	.
8e	8g 8cc	.
8fJ)	8a 8ddJ)	.
*clefF4	*	*
=63	=63	=63
(2.e	(2.g 2.cc	p
=64	=64	=64
2.d	2.f 2.bn	.
=65	=65	=65
2.c)	2.e) 2.b-X	pp
!!LO:LB:g=z
=66	=66	=66
(4F	(>8aL	p
.	8g	.
4A	8a	.
.	8f	.
4c	8g	.
.	8aJ	.
=67	=67	=67
4d	8b-L	.
.	8a	.
4G	8b-	.
.	8g	.
4F	8a	.
.	8bJ	.
=68	=68	=68
4E	8ccL>	.
.	8b	.
4G	8cc	.
.	8dd	.
4c	8cc	.
.	8b-J	.
=69	=69	=69
4F	8aL	.
.	8g	.
4A	8a	.
.	8b-	.
4c)	8a	.
.	8fJ)	.
=70	=70	=70
(8AAL	(4a\	.
8GG#	.	.
8AA	4cc	.
8FF	.	.
8GG	4ff	.
8AAJ	.	.
=71	=71	=71
8BB-L	4dd	.
8AA	.	.
8BB-	4g	.
8GG	.	.
8AA	4f	.
8BBJ	.	.
=72	=72	=72
8CL	4e	.
8BB	.	.
8C	4g	.
8BB-	.	.
8AA	4cc	.
8GGJ	.	.
=73	=73	=73
4FF)	4f)	.
4F	4r	.
!!LO:TX:b:i:rj:t=D.C.&nbsp;&nbsp;&nbsp;&nbsp;
!!LO:TX:b:i:rj:t=Minuetto
=:|!	=:|!	=:|!
*-	*-	*-
!!!SMS: Durand 1915, plates 9327/9328, Paul Dukas, ed.
!!!ENC: Craig Stuart Sapp
!!!END: 2004/04/06
!!!EEV: 2020/08/15
!!!EED: Craig Stuart Sapp
!!!RDF**kern: > = above
!!!RDF**kern: < = below
